; generated by PrusaSlicer 2.4.1+win64 on 2024-03-20 at 13:13:35 UTC

; 

; external perimeters extrusion width = 0.45mm
; perimeters extrusion width = 0.45mm
; infill extrusion width = 0.45mm
; solid infill extrusion width = 0.45mm
; top infill extrusion width = 0.45mm
; support material extrusion width = 0.35mm
; first layer extrusion width = 0.42mm

M73 P0 R8
M201 X9000 Y9000 Z500 E10000 ; sets maximum accelerations, mm/sec^2
M203 X500 Y500 Z12 E120 ; sets maximum feedrates, mm / sec
M204 P2000 R1500 T2000 ; sets acceleration (P, T) and retract acceleration (R), mm/sec^2
M205 X10.00 Y10.00 Z0.20 E4.50 ; sets the jerk limits, mm/sec
M205 S0 T0 ; sets the minimum extruding and travel feed rate, mm/sec
M107
;TYPE:Custom
M862.3 P "MK2.5S" ; printer model check
M862.1 P0.4 ; nozzle diameter check
M115 U3.12.2 ; tell printer latest fw version
G90 ; use absolute coordinates
M83 ; extruder relative mode
M104 S230 ; set extruder temp
M140 S85 ; set bed temp
M190 S85 ; wait for bed temp
M109 S230 ; wait for extruder temp
G28 W ; home all without mesh bed level
G80 ; mesh bed leveling

G1 Z0.2 F720
G1 Y-3 F1000 ; go outside print area
G92 E0
G1 X60 E9 F1000 ; intro line
G1 X100 E12.5 F1000 ; intro line

G92 E0
G21 ; set units to millimeters
G90 ; use absolute coordinates
M83 ; use relative distances for extrusion
M900 K0.08 ; Filament gcode LA 1.5
M900 K45 ; Filament gcode LA 1.0
M107
;LAYER_CHANGE
;Z:0.2
;HEIGHT:0.2
;BEFORE_LAYER_CHANGE
G92 E0.0
;0.2


G1 E-1 F2100
M73 P1 R8
G1 Z.2 F720
;AFTER_LAYER_CHANGE
;0.2
G1 Z.4
G1 X82.693 Y80.098 F10800
G1 Z.2 F720
G1 E1 F2100
M204 S800
;TYPE:Skirt/Brim
;WIDTH:0.42
G1 F1200
G1 X83.742 Y79.067 E.04612
G1 X85.078 Y78.721 E.04328
G1 X94.922 Y78.721 E.30865
G1 X96.339 Y79.114 E.04612
G1 X97.307 Y80.098 E.04328
G1 X102.229 Y88.623 E.30865
G1 X102.598 Y90.047 E.04612
G1 X102.229 Y91.377 E.04328
G1 X97.307 Y99.902 E.30865
G1 X96.258 Y100.933 E.04612
G1 X94.922 Y101.279 E.04328
G1 X85.078 Y101.279 E.30865
G1 X83.661 Y100.886 E.04612
G1 X82.693 Y99.902 E.04328
G1 X77.771 Y91.377 E.30865
G1 X77.402 Y89.953 E.04612
G1 X77.771 Y88.623 E.04328
G1 X82.663 Y80.15 E.30676
M204 S1000
G1 X82.989 Y80.338 F10800
M204 S800
G1 F1200
G1 X83.019 Y80.286 E.00188
G1 X84.012 Y79.35 E.04278
G1 X85.078 Y79.098 E.03435
M73 P2 R8
G1 X94.922 Y79.098 E.30865
G1 X96.229 Y79.49 E.04278
G1 X96.981 Y80.286 E.03435
G1 X101.902 Y88.811 E.30865
G1 X102.217 Y90.139 E.04278
G1 X101.902 Y91.189 E.03435
G1 X96.981 Y99.714 E.30865
G1 X95.988 Y100.65 E.04278
G1 X94.922 Y100.902 E.03435
G1 X85.078 Y100.902 E.30865
G1 X83.771 Y100.51 E.04278
G1 X83.019 Y99.714 E.03435
G1 X78.098 Y91.189 E.30865
G1 X77.783 Y89.861 E.04278
G1 X78.098 Y88.811 E.03435
G1 X82.959 Y80.39 E.30488
M204 S1000
; printing object TRA-303-HexNutInsert.STL id:0 copy 0
;WIPE_START
G1 F8640
G1 X83.019 Y80.286 E-.02771
G1 X84.012 Y79.35 E-.31505
G1 X85.078 Y79.098 E-.25294
G1 X86.613 Y79.098 E-.3543
;WIPE_END
G1 E-.05 F2100
G1 Z.4 F720
G1 X87.003 Y85.648 F10800
G1 Z.2 F720
G1 E1 F2100
M204 S800
;TYPE:Perimeter
G1 F1200
G1 X87.702 Y85.236 E.02547
G1 X88.441 Y84.946 E.02488
G1 X89.212 Y84.77 E.02479
G1 X89.949 Y84.715 E.02317
G1 X90.786 Y84.769 E.0263
G1 X91.559 Y84.946 E.02488
G1 X92.295 Y85.235 E.02479
G1 X92.935 Y85.604 E.02317
G1 X93.596 Y86.121 E.0263
G1 X94.135 Y86.702 E.02488
G1 X94.581 Y87.355 E.02479
G1 X94.901 Y88.021 E.02317
G1 X95.156 Y88.82 E.0263
G1 X95.274 Y89.605 E.02488
G1 X95.274 Y90.395 E.02479
G1 X95.164 Y91.126 E.02317
G1 X94.925 Y91.93 E.0263
G1 X94.581 Y92.645 E.02488
G1 X94.135 Y93.298 E.02479
G1 X93.598 Y93.877 E.02479
G1 X92.98 Y94.37 E.02479
G1 X92.295 Y94.765 E.02479
G1 X91.559 Y95.054 E.02479
G1 X90.788 Y95.23 E.02479
G1 X90 Y95.289 E.02479
G1 X89.212 Y95.23 E.02479
G1 X88.441 Y95.054 E.02479
G1 X87.753 Y94.784 E.02317
G1 X87.023 Y94.372 E.0263
G1 X86.402 Y93.877 E.02488
G1 X85.865 Y93.298 E.02479
G1 X85.419 Y92.645 E.02479
G1 X85.099 Y91.979 E.02317
G1 X84.844 Y91.18 E.0263
M73 P3 R8
G1 X84.726 Y90.395 E.02488
G1 X84.726 Y89.605 E.02479
G1 X84.843 Y88.823 E.02479
G1 X85.076 Y88.068 E.02479
G1 X85.419 Y87.355 E.02479
G1 X85.865 Y86.702 E.02479
G1 X86.402 Y86.123 E.02479
G1 X86.954 Y85.683 E.02212
M204 S1000
G1 X87.195 Y85.973 F10800
M204 S800
;TYPE:External perimeter
G1 F1200
G1 X87.868 Y85.576 E.02452
G1 X88.552 Y85.307 E.02305
G1 X89.268 Y85.144 E.02301
G1 X89.951 Y85.093 E.02146
G1 X90.731 Y85.143 E.02452
G1 X91.448 Y85.307 E.02305
G1 X92.131 Y85.575 E.02301
G1 X92.724 Y85.917 E.02146
G1 X93.34 Y86.399 E.02452
G1 X93.84 Y86.938 E.02305
G1 X94.253 Y87.544 E.02302
G1 X94.55 Y88.161 E.02146
G1 X94.788 Y88.906 E.02452
G1 X94.897 Y89.633 E.02305
G1 X94.897 Y90.367 E.02301
G1 X94.795 Y91.044 E.02146
G1 X94.572 Y91.793 E.02452
G1 X94.253 Y92.456 E.02305
G1 X93.84 Y93.062 E.02301
G1 X93.34 Y93.6 E.02301
G1 X92.767 Y94.058 E.02301
G1 X92.131 Y94.425 E.02301
G1 X91.448 Y94.693 E.02301
G1 X90.732 Y94.856 E.02301
G1 X90 Y94.911 E.02301
G1 X89.268 Y94.856 E.02301
G1 X88.552 Y94.693 E.02301
G1 X87.915 Y94.443 E.02146
G1 X87.234 Y94.058 E.02452
G1 X86.66 Y93.6 E.02305
G1 X86.16 Y93.062 E.02301
G1 X85.747 Y92.456 E.02301
G1 X85.45 Y91.839 E.02146
G1 X85.212 Y91.094 E.02452
G1 X85.103 Y90.367 E.02305
G1 X85.103 Y89.633 E.02301
G1 X85.212 Y88.907 E.02301
G1 X85.428 Y88.206 E.02301
G1 X85.747 Y87.544 E.02301
G1 X86.16 Y86.938 E.02302
G1 X86.66 Y86.4 E.02301
G1 X87.148 Y86.011 E.01958
M204 S1000
G1 X87.162 Y85.575 F10800
;WIPE_START
G1 F8640
G1 X87.868 Y85.576 E-.19432
G1 X88.552 Y85.307 E-.16972
G1 X89.268 Y85.144 E-.16949
G1 X89.951 Y85.093 E-.15803
G1 X90.731 Y85.143 E-.1806
G1 X91.06 Y85.218 E-.07784
;WIPE_END
G1 E-.05 F2100
G1 Z.4 F720
G1 X85.533 Y82.262 F10800
G1 Z.2 F720
G1 E1 F2100
M204 S800
;TYPE:Perimeter
G1 F1200
G1 X94.467 Y82.262 E.28015
G1 X98.935 Y90 E.28015
G1 X94.467 Y97.738 E.28015
G1 X85.533 Y97.738 E.28015
G1 X81.065 Y90 E.28015
G1 X85.503 Y82.314 E.27827
M204 S1000
G1 X85.315 Y81.885 F10800
M204 S800
;TYPE:External perimeter
G1 F1200
G1 X94.685 Y81.885 E.2938
G1 X99.37 Y90 E.2938
M73 P4 R8
G1 X94.685 Y98.115 E.2938
G1 X85.315 Y98.115 E.2938
G1 X80.63 Y90 E.2938
G1 X85.285 Y81.937 E.29192
M204 S1000
G1 X85.661 Y82.085 F10800
;WIPE_START
G1 F8640
G1 X89.399 Y81.914 E-.95
;WIPE_END
G1 E-.05 F2100
G1 Z.4 F720
G1 X95.46 Y84.207 F10800
G1 Z.2 F720
G1 E1 F2100
M204 S800
;TYPE:Solid infill
;WIDTH:0.421826
G1 F1200
G1 X93.798 Y82.545 E.07405
G1 X93.262 Y82.545 E.01688
G1 X95.728 Y85.011 E.10988
G1 X96.46 Y86.279 E.04612
G1 X92.726 Y82.545 E.16637
G1 X92.19 Y82.545 E.01688
G1 X97.192 Y87.547 E.22286
G1 X97.924 Y88.815 E.04612
G1 X91.654 Y82.545 E.27935
G1 X91.118 Y82.545 E.01688
G1 X98.596 Y90.022 E.33316
G1 X98.4 Y90.362 E.01236
G1 X90.583 Y82.545 E.34829
G1 X90.047 Y82.545 E.01688
M73 P5 R8
G1 X92.567 Y85.065 E.11229
G1 X93.094 Y85.369 E.01916
G1 X93.788 Y85.912 E.02776
G1 X94.357 Y86.525 E.02637
G1 X94.826 Y87.214 E.02624
G1 X94.929 Y87.427 E.00747
G1 X98.203 Y90.702 E.14589
G1 X98.007 Y91.041 E.01236
G1 X95.297 Y88.331 E.12076
G1 X95.433 Y88.756 E.01405
G1 X95.476 Y89.046 E.00925
G1 X97.811 Y91.381 E.10403
G1 X97.615 Y91.721 E.01236
G1 X95.557 Y89.663 E.09168
G1 X95.557 Y90.199 E.01688
G1 X97.419 Y92.06 E.08295
G1 X97.223 Y92.4 E.01236
G1 X95.516 Y90.693 E.07606
G1 X95.445 Y91.159 E.01484
G1 X97.027 Y92.74 E.07045
G1 X96.83 Y93.08 E.01236
G1 X95.326 Y91.575 E.06705
G1 X95.203 Y91.988 E.01357
G1 X96.634 Y93.419 E.06379
G1 X96.438 Y93.759 E.01236
G1 X95.034 Y92.355 E.06256
G1 X94.86 Y92.717 E.01265
G1 X96.242 Y94.099 E.06158
G1 X96.046 Y94.438 E.01236
G1 X94.651 Y93.043 E.06215
G1 X94.434 Y93.362 E.01215
G1 X95.85 Y94.778 E.06309
G1 X95.654 Y95.118 E.01236
G1 X94.19 Y93.654 E.0652
G1 X93.932 Y93.932 E.01195
G1 X95.458 Y95.458 E.06796
G1 X95.261 Y95.797 E.01236
G1 X93.656 Y94.192 E.07152
G1 X93.358 Y94.43 E.01201
G1 X95.065 Y96.137 E.07606
G1 X94.869 Y96.477 E.01236
G1 X93.049 Y94.657 E.0811
G1 X92.709 Y94.853 E.01236
G1 X94.673 Y96.816 E.08749
G1 X94.477 Y97.156 E.01236
G1 X92.363 Y95.042 E.09418
G1 X91.978 Y95.194 E.01302
G1 X94.24 Y97.455 E.10077
G1 X93.704 Y97.455 E.01688
G1 X91.587 Y95.338 E.09433
G1 X91.151 Y95.438 E.0141
G1 X93.168 Y97.455 E.08989
G1 X92.632 Y97.455 E.01688
G1 X90.698 Y95.521 E.0862
G1 X90.199 Y95.558 E.01575
G1 X92.097 Y97.455 E.08453
G1 X91.561 Y97.455 E.01688
G1 X89.652 Y95.547 E.08503
G1 X89.169 Y95.511 E.01526
G1 X89.054 Y95.484 E.00373
G1 X91.025 Y97.455 E.08781
G1 X90.489 Y97.455 E.01688
G1 X88.06 Y95.026 E.10822
M204 S1000
;WIPE_START
G1 F8640
G1 X90.489 Y97.455 E-.79309
G1 X91.025 Y97.455 E-.12373
G1 X90.923 Y97.354 E-.03318
;WIPE_END
G1 E-.05 F2100
G1 Z.4 F720
G1 X91.94 Y84.974 F10800
G1 Z.2 F720
M73 P6 R8
G1 E1 F2100
M204 S800
G1 F1200
G1 X89.511 Y82.545 E.10821
G1 X88.975 Y82.545 E.01688
G1 X90.946 Y84.516 E.08781
G1 X90.826 Y84.488 E.00386
G1 X90.352 Y84.457 E.01499
G1 X88.439 Y82.545 E.08522
G1 X87.903 Y82.545 E.01688
G1 X89.801 Y84.442 E.08453
G1 X89.302 Y84.479 E.01575
G1 X87.368 Y82.545 E.0862
G1 X86.832 Y82.545 E.01688
G1 X88.849 Y84.562 E.0899
G1 X88.413 Y84.662 E.0141
G1 X86.296 Y82.545 E.09433
G1 X85.76 Y82.545 E.01688
G1 X88.022 Y84.807 E.10077
G1 X87.637 Y84.958 E.01302
G1 X85.523 Y82.844 E.09418
G1 X85.327 Y83.184 E.01236
G1 X87.292 Y85.149 E.08758
G1 X86.956 Y85.348 E.01233
G1 X85.131 Y83.523 E.0813
G1 X84.935 Y83.863 E.01236
G1 X86.642 Y85.57 E.07606
G1 X86.344 Y85.808 E.01201
G1 X84.739 Y84.203 E.07151
G1 X84.542 Y84.543 E.01236
G1 X86.068 Y86.068 E.06796
G1 X85.81 Y86.346 E.01195
G1 X84.346 Y84.882 E.0652
G1 X84.15 Y85.222 E.01236
G1 X85.566 Y86.638 E.06309
G1 X85.349 Y86.957 E.01215
G1 X83.954 Y85.562 E.06215
G1 X83.758 Y85.901 E.01236
G1 X85.14 Y87.284 E.06158
G1 X84.966 Y87.645 E.01265
G1 X83.562 Y86.241 E.06256
G1 X83.366 Y86.581 E.01236
G1 X84.797 Y88.013 E.06379
G1 X84.671 Y88.422 E.0135
G1 X83.169 Y86.921 E.0669
G1 X82.973 Y87.26 E.01236
G1 X84.555 Y88.841 E.07045
G1 X84.484 Y89.307 E.01484
G1 X82.777 Y87.6 E.07606
G1 X82.581 Y87.94 E.01236
G1 X84.443 Y89.801 E.08295
G1 X84.443 Y90.337 E.01688
G1 X82.385 Y88.279 E.09169
G1 X82.189 Y88.619 E.01236
G1 X84.524 Y90.954 E.10404
G1 X84.567 Y91.244 E.00925
G1 X84.703 Y91.669 E.01405
G1 X81.993 Y88.959 E.12077
G1 X81.797 Y89.299 E.01236
G1 X85.071 Y92.573 E.14589
G1 X85.174 Y92.786 E.00747
G1 X85.643 Y93.475 E.02624
G1 X86.209 Y94.085 E.02624
G1 X86.864 Y94.607 E.02638
G1 X87.418 Y94.92 E.02004
G1 X89.953 Y97.455 E.11296
G1 X89.417 Y97.455 E.01688
G1 X81.6 Y89.638 E.34829
G1 X81.404 Y89.978 E.01236
M73 P7 R8
G1 X88.881 Y97.455 E.33315
G1 X88.346 Y97.455 E.01688
G1 X82.076 Y91.186 E.27934
G1 X82.808 Y92.454 E.04612
G1 X87.81 Y97.455 E.22285
G1 X87.274 Y97.455 E.01688
G1 X83.54 Y93.721 E.16636
G1 X84.272 Y94.989 E.04612
G1 X86.738 Y97.455 E.10987
G1 X86.202 Y97.455 E.01688
G1 X84.541 Y95.793 E.07404
M204 S1000
; stop printing object TRA-303-HexNutInsert.STL id:0 copy 0
;LAYER_CHANGE
;Z:0.35
;HEIGHT:0.15
;BEFORE_LAYER_CHANGE
G92 E0.0
;0.35


;WIPE_START
G1 F8640
G1 X86.202 Y97.455 E-.5426
G1 X86.738 Y97.455 E-.12373
G1 X85.869 Y96.586 E-.28367
;WIPE_END
G1 E-.05 F2100
G1 Z.4 F720
;AFTER_LAYER_CHANGE
;0.35
M104 S240 ; set temperature
M140 S90 ; set bed temperature
G1 X82.051 Y98.791 F10800
G1 Z.35 F720
G1 E1 F2100
;TYPE:Skirt/Brim
;WIDTH:0.42
G1 F2918
G1 X77.771 Y91.377 E.20704
G1 X77.402 Y89.953 E.03557
G1 X77.771 Y88.623 E.03338
G1 X82.693 Y80.098 E.23807
G1 X83.742 Y79.067 E.03557
G1 X85.078 Y78.721 E.03338
G1 X94.922 Y78.721 E.23807
G1 X96.339 Y79.114 E.03557
G1 X97.307 Y80.098 E.03338
G1 X102.229 Y88.623 E.23807
G1 X102.598 Y90.047 E.03557
G1 X102.229 Y91.377 E.03338
G1 X97.307 Y99.902 E.23807
G1 X96.258 Y100.933 E.03557
G1 X94.922 Y101.279 E.03338
G1 X85.078 Y101.279 E.23807
G1 X83.661 Y100.886 E.03557
G1 X82.693 Y99.902 E.03338
G1 X82.081 Y98.843 E.02958
G1 X82.408 Y98.654 F10800
G1 F2918
G1 X78.098 Y91.189 E.20849
G1 X77.783 Y89.861 E.033
G1 X78.098 Y88.811 E.02649
G1 X83.019 Y80.286 E.23807
G1 X84.012 Y79.35 E.033
G1 X85.078 Y79.098 E.02649
G1 X94.922 Y79.098 E.23807
G1 X96.229 Y79.49 E.033
G1 X96.981 Y80.286 E.02649
G1 X101.902 Y88.811 E.23807
M73 P8 R8
G1 X102.217 Y90.139 E.033
G1 X101.902 Y91.189 E.02649
G1 X96.981 Y99.714 E.23807
G1 X95.988 Y100.65 E.033
G1 X94.922 Y100.902 E.02649
G1 X85.078 Y100.902 E.23807
G1 X83.771 Y100.51 E.033
G1 X83.019 Y99.714 E.02649
G1 X82.438 Y98.706 E.02813
; printing object TRA-303-HexNutInsert.STL id:0 copy 0
;WIPE_START
G1 F8640
G1 X80.381 Y95.143 E-.95
;WIPE_END
G1 E-.05 F2100
G1 Z.55 F720
G1 X86.525 Y93.791 F10800
G1 Z.35 F720
G1 E1 F2100
M204 S800
;TYPE:Perimeter
;WIDTH:0.45
G1 F1500
G1 X85.978 Y93.208 E.02084
G1 X85.6 Y92.654 E.01747
G1 X85.213 Y91.885 E.02242
G1 X84.984 Y91.145 E.02019
G1 X84.87 Y90.384 E.02003
G1 X84.87 Y89.616 E.02003
G1 X84.97 Y88.952 E.01747
G1 X85.208 Y88.126 E.02242
G1 X85.545 Y87.428 E.02019
G1 X85.978 Y86.792 E.02003
G1 X86.501 Y86.229 E.02003
G1 X87.102 Y85.749 E.02003
G1 X87.768 Y85.365 E.02003
G1 X88.484 Y85.084 E.02003
G1 X89.233 Y84.913 E.02003
G1 X89.902 Y84.863 E.01747
G1 X90.761 Y84.912 E.02242
G1 X91.516 Y85.084 E.02019
G1 X92.232 Y85.365 E.02003
G1 X92.898 Y85.749 E.02003
G1 X93.499 Y86.229 E.02003
G1 X94.022 Y86.792 E.02003
G1 X94.4 Y87.346 E.01747
G1 X94.787 Y88.115 E.02242
G1 X95.016 Y88.855 E.02019
G1 X95.13 Y89.616 E.02003
G1 X95.13 Y90.384 E.02003
G1 X95.03 Y91.048 E.01747
G1 X94.792 Y91.874 E.02242
G1 X94.455 Y92.572 E.02019
G1 X94.022 Y93.208 E.02003
G1 X93.566 Y93.699 E.01747
G1 X92.903 Y94.248 E.02242
G1 X92.232 Y94.635 E.02019
G1 X91.516 Y94.916 E.02003
G1 X90.767 Y95.087 E.02003
G1 X90 Y95.145 E.02003
G1 X89.233 Y95.087 E.02003
G1 X88.484 Y94.916 E.02003
G1 X87.859 Y94.671 E.01747
G1 X87.107 Y94.254 E.02242
G1 X86.572 Y93.828 E.01781
M204 S1000
G1 X86.786 Y93.464 F10800
M204 S800
;TYPE:External perimeter
G1 F1500
G1 X86.305 Y92.946 E.0184
G1 X85.961 Y92.441 E.01594
G1 X85.602 Y91.728 E.02079
G1 X85.393 Y91.052 E.01846
G1 X85.288 Y90.353 E.0184
G1 X85.288 Y89.647 E.0184
G1 X85.379 Y89.042 E.01594
G1 X85.6 Y88.275 E.02079
G1 X85.907 Y87.637 E.01846
G1 X86.305 Y87.054 E.0184
G1 X86.786 Y86.536 E.0184
G1 X87.338 Y86.095 E.0184
G1 X87.95 Y85.742 E.0184
G1 X88.607 Y85.484 E.0184
G1 X89.296 Y85.327 E.0184
G1 X89.906 Y85.281 E.01594
G1 X90.702 Y85.327 E.02079
G1 X91.393 Y85.484 E.01846
G1 X92.05 Y85.742 E.0184
G1 X92.662 Y86.095 E.0184
G1 X93.214 Y86.536 E.0184
G1 X93.695 Y87.054 E.0184
G1 X94.039 Y87.559 E.01594
G1 X94.398 Y88.272 E.02079
G1 X94.607 Y88.948 E.01846
G1 X94.712 Y89.647 E.0184
G1 X94.712 Y90.353 E.0184
G1 X94.621 Y90.958 E.01594
G1 X94.4 Y91.725 E.02079
G1 X94.093 Y92.363 E.01846
G1 X93.695 Y92.946 E.0184
G1 X93.279 Y93.395 E.01594
G1 X92.664 Y93.903 E.02079
G1 X92.05 Y94.258 E.01846
G1 X91.393 Y94.516 E.0184
G1 X90.704 Y94.673 E.0184
G1 X90 Y94.726 E.0184
G1 X89.296 Y94.673 E.0184
G1 X88.607 Y94.516 E.0184
G1 X88.038 Y94.292 E.01594
G1 X87.34 Y93.906 E.02079
G1 X86.833 Y93.502 E.01689
M204 S1000
G1 X86.404 Y93.584 F10800
;WIPE_START
G1 F8640
G1 X86.305 Y92.946 E-.1768
G1 X85.961 Y92.441 E-.14126
G1 X85.602 Y91.728 E-.18423
G1 X85.393 Y91.052 E-.16356
G1 X85.288 Y90.353 E-.16309
G1 X85.288 Y89.829 E-.12107
;WIPE_END
G1 E-.05 F2100
G1 Z.55 F720
G1 X85.449 Y97.882 F10800
G1 Z.35 F720
G1 E1 F2100
M204 S800
;TYPE:Perimeter
G1 F2918
G1 X80.898 Y90 E.23715
G1 X85.449 Y82.118 E.23715
G1 X94.551 Y82.118 E.23715
G1 X99.102 Y90 E.23715
G1 X94.551 Y97.882 E.23715
G1 X85.509 Y97.882 E.23559
M204 S1000
G1 X85.208 Y98.3 F10800
M204 S800
;TYPE:External perimeter
M73 P9 R8
G1 F2400
G1 X80.416 Y90 E.24972
G1 X85.208 Y81.7 E.24972
G1 X94.792 Y81.7 E.24972
G1 X99.584 Y90 E.24972
G1 X94.792 Y98.3 E.24972
G1 X85.268 Y98.3 E.24816
M204 S1000
G1 X85.208 Y97.9 F10800
;WIPE_START
G1 F8640
G1 X83.192 Y94.748 E-.95
;WIPE_END
G1 E-.05 F2100
G1 Z.55 F720
G1 X95.66 Y95.711 F10800
G1 Z.35 F720
G1 E1 F2100
M204 S2000
;TYPE:Solid infill
;WIDTH:0.455357
G1 F2918
G1 X93.802 Y97.569 E.06935
G1 X93.203 Y97.569 E.01579
G1 X95.964 Y94.808 E.10302
G1 X96.781 Y93.393 E.04315
G1 X92.605 Y97.569 E.15586
G1 X92.006 Y97.569 E.01579
G1 X97.599 Y91.977 E.20871
G1 X98.416 Y90.561 E.04315
G1 X91.408 Y97.569 E.26155
G1 X90.809 Y97.569 E.01579
