; generated by PrusaSlicer 2.4.1+win64 on 2024-03-15 at 18:34:35 UTC

; 

; external perimeters extrusion width = 0.45mm
; perimeters extrusion width = 0.45mm
; infill extrusion width = 0.45mm
; solid infill extrusion width = 0.45mm
; top infill extrusion width = 0.45mm
; support material extrusion width = 0.35mm
; first layer extrusion width = 0.42mm

; external perimeters extrusion width = 0.45mm
; perimeters extrusion width = 0.45mm
; infill extrusion width = 0.45mm
; solid infill extrusion width = 0.45mm
; top infill extrusion width = 0.45mm
; support material extrusion width = 0.35mm
; first layer extrusion width = 0.42mm

M73 P0 R236
M201 X9000 Y9000 Z500 E10000 ; sets maximum accelerations, mm/sec^2
M203 X500 Y500 Z12 E120 ; sets maximum feedrates, mm / sec
M204 P2000 R1500 T2000 ; sets acceleration (P, T) and retract acceleration (R), mm/sec^2
M205 X10.00 Y10.00 Z0.20 E4.50 ; sets the jerk limits, mm/sec
M205 S0 T0 ; sets the minimum extruding and travel feed rate, mm/sec
M107
;TYPE:Custom
M862.3 P "MK2.5S" ; printer model check
M862.1 P0.4 ; nozzle diameter check
M115 U3.12.2 ; tell printer latest fw version
G90 ; use absolute coordinates
M83 ; extruder relative mode
M104 S215 ; set extruder temp
M140 S60 ; set bed temp
M190 S60 ; wait for bed temp
M109 S215 ; wait for extruder temp
G28 W ; home all without mesh bed level
G80 ; mesh bed leveling

G1 Z0.2 F720
G1 Y-3 F1000 ; go outside print area
G92 E0
G1 X60 E9 F1000 ; intro line
G1 X100 E12.5 F1000 ; intro line

G92 E0
G21 ; set units to millimeters
G90 ; use absolute coordinates
M83 ; use relative distances for extrusion
M900 K0.05 ; Filament gcode LA 1.5
M900 K30 ; Filament gcode LA 1.0
M107
;LAYER_CHANGE
;Z:0.2
;HEIGHT:0.2
;BEFORE_LAYER_CHANGE
G92 E0.0
;0.2


G1 E-.8 F2100
G1 Z.4 F720
;AFTER_LAYER_CHANGE
;0.2
G1 X41.663 Y72.713 F10800
G1 Z.2 F720
G1 E.8 F2100
M204 S800
;TYPE:Skirt/Brim
;WIDTH:0.42
G1 F1200
G1 X43.241 Y72.019 E.05405
G1 X88.635 Y70.063 E1.42461
G1 X153.666 Y73.994 E2.04274
G1 X155.204 Y74.686 E.05286
G1 X155.314 Y74.796 E.0049
G1 X156.01 Y76.477 E.05704
G1 X156.01 Y133.388 E1.7844
G1 X155.517 Y134.838 E.048
G1 X155.329 Y135.083 E.0097
G1 X154.221 Y135.88 E.04278
G1 X153.544 Y136.008 E.02162
G1 X106.401 Y137.964 E1.47941
G1 X43.197 Y134.034 E1.98555
G1 X41.663 Y133.342 E.05274
G1 X41.553 Y133.231 E.0049
G1 X40.857 Y131.551 E.05704
G1 X40.857 Y74.505 E1.78863
G1 X41.553 Y72.824 E.05704
G1 X41.621 Y72.756 E.00302
M204 S1000
;WIPE_START
G1 F8640
G1 X43.241 Y72.019 E-.41095
G1 X44.751 Y71.954 E-.34905
;WIPE_END
G1 E-.04 F2100
G1 Z.6 F720
G1 X78.094 Y77.502 F10800
G1 Z.2 F720
G1 E.8 F2100
M204 S800
G1 F1200
G1 X78.115 Y77.338 E.00519
G1 X78.523 Y76.336 E.03392
G1 X79.225 Y75.347 E.03804
G1 X80.33 Y74.459 E.04443
G1 X81.307 Y74.024 E.03353
G1 X86.764 Y73.031 E.17392
G1 X87.872 Y73.032 E.03474
G1 X89.287 Y73.428 E.04608
G1 X90.478 Y74.195 E.04442
G1 X91.414 Y75.312 E.04569
G1 X91.974 Y76.632 E.04495
G1 X98.45 Y113.362 E1.16942
G1 X98.767 Y113.362 E.00992
G1 X104.919 Y78.516 E1.10947
G1 X105.402 Y77.368 E.03906
G1 X106.346 Y76.207 E.04692
G1 X107.419 Y75.481 E.04062
G1 X108.244 Y75.158 E.02776
G1 X110 Y74.983 E.05533
G1 X116.092 Y76.188 E.19472
G1 X116.893 Y76.66 E.02917
G1 X117.581 Y77.256 E.02854
G1 X118.328 Y78.268 E.03945
G1 X118.792 Y79.469 E.04035
G1 X118.904 Y81.072 E.05039
G1 X110.018 Y131.469 E1.60453
G1 X109.34 Y132.916 E.05009
G1 X108.758 Y133.622 E.02871
G1 X107.715 Y134.412 E.04101
G1 X106.479 Y134.894 E.0416
G1 X104.851 Y135.003 E.05115
G1 X99.138 Y133.924 E.1823
G1 X98.146 Y133.418 E.03492
G1 X97.494 Y132.901 E.02608
G1 X96.899 Y132.153 E.02996
G1 X91.858 Y133.049 E.16053
G1 X90.133 Y132.857 E.05443
G1 X89.197 Y132.457 E.03192
G1 X88.243 Y131.779 E.03669
G1 X87.407 Y130.762 E.04127
G1 X86.876 Y129.56 E.04121
G1 X77.941 Y78.676 E1.61984
G1 X78.086 Y77.561 E.03523
M204 S1000
G1 X78.46 Y77.61 F10800
M204 S800
G1 F1200
G1 X78.486 Y77.411 E.0063
G1 X78.844 Y76.535 E.02968
G1 X79.484 Y75.622 E.03494
G1 X80.508 Y74.793 E.04133
G1 X81.397 Y74.391 E.0306
G1 X86.815 Y73.405 E.17267
G1 X87.798 Y73.402 E.0308
G1 X89.11 Y73.762 E.04265
G1 X90.21 Y74.461 E.04088
G1 X91.079 Y75.487 E.04215
G1 X91.606 Y76.719 E.04202
G1 X98.45 Y115.532 E1.23574
G1 X98.767 Y115.532 E.00992
M73 P0 R235
G1 X105.286 Y78.603 E1.1758
G1 X105.738 Y77.541 E.03619
G1 X106.62 Y76.469 E.04353
G1 X107.578 Y75.823 E.03623
G1 X108.31 Y75.53 E.02472
G1 X109.955 Y75.359 E.05187
G1 X115.929 Y76.53 E.19088
G1 X116.662 Y76.958 E.0266
G1 X117.291 Y77.498 E.026
G1 X118.009 Y78.471 E.03794
G1 X118.429 Y79.576 E.03707
G1 X118.529 Y81.029 E.04566
G1 X109.651 Y131.378 E1.60301
G1 X109.01 Y132.732 E.04696
G1 X108.483 Y133.363 E.02579
G1 X107.51 Y134.094 E.03816
G1 X106.371 Y134.532 E.03827
G1 X104.898 Y134.628 E.04628
G1 X99.235 Y133.558 E.1807
G1 X98.364 Y133.111 E.03071
G1 X97.775 Y132.649 E.02347
G1 X97.055 Y131.743 E.03629
G1 X91.819 Y132.673 E.16672
G1 X90.254 Y132.498 E.04937
G1 X89.396 Y132.137 E.02919
G1 X88.516 Y131.518 E.03373
G1 X87.741 Y130.584 E.03807
G1 X87.244 Y129.471 E.03821
G1 X78.318 Y78.696 E1.61643
G1 X78.452 Y77.67 E.03245
M204 S1000
G1 X78.826 Y77.718 F10800
M204 S800
G1 F1200
G1 X78.856 Y77.484 E.0074
G1 X79.166 Y76.732 E.0255
G1 X79.744 Y75.897 E.03185
G1 X80.688 Y75.125 E.03824
G1 X81.489 Y74.758 E.02762
G1 X86.866 Y73.779 E.17137
G1 X87.771 Y73.779 E.02839
G1 X88.98 Y74.117 E.03935
G1 X89.981 Y74.762 E.03733
G1 X90.772 Y75.707 E.03864
G1 X91.239 Y76.805 E.03742
G1 X98.45 Y117.703 E1.30209
G1 X98.766 Y117.703 E.00992
G1 X105.654 Y78.691 E1.24211
G1 X106.073 Y77.715 E.03328
G1 X106.892 Y76.731 E.04014
G1 X107.739 Y76.165 E.03196
G1 X108.379 Y75.902 E.02168
G1 X109.912 Y75.734 E.04836
G1 X115.768 Y76.872 E.18704
G1 X116.431 Y77.257 E.02405
G1 X117.002 Y77.741 E.02348
G1 X117.667 Y78.63 E.03479
G1 X118.067 Y79.684 E.03534
G1 X118.154 Y80.986 E.04092
G1 X109.284 Y131.287 E1.60148
G1 X108.681 Y132.546 E.04378
G1 X108.21 Y133.102 E.02285
G1 X107.307 Y133.775 E.03532
G1 X106.265 Y134.169 E.03493
G1 X104.945 Y134.253 E.04146
G1 X99.333 Y133.193 E.17906
G1 X98.556 Y132.785 E.02753
G1 X98.027 Y132.367 E.02114
G1 X97.212 Y131.332 E.04132
G1 X91.78 Y132.297 E.17297
G1 X90.374 Y132.14 E.04435
G1 X89.594 Y131.815 E.0265
G1 X88.79 Y131.257 E.0307
G1 X88.047 Y130.363 E.03644
G1 X87.611 Y129.383 E.03363
G1 X78.696 Y78.716 E1.61303
G1 X78.818 Y77.778 E.02967
M204 S1000
G1 X79.192 Y77.826 F10800
M204 S800
G1 F1200
G1 X79.227 Y77.558 E.00849
G1 X79.489 Y76.928 E.02138
G1 X80.005 Y76.17 E.02877
G1 X80.87 Y75.456 E.03516
G1 X81.581 Y75.124 E.02459
G1 X86.917 Y74.153 E.17008
G1 X87.698 Y74.15 E.02446
G1 X88.803 Y74.451 E.03592
G1 X89.712 Y75.029 E.03379
G1 X90.437 Y75.883 E.03511
G1 X90.871 Y76.893 E.03448
G1 X98.45 Y119.873 E1.3684
G1 X98.766 Y119.873 E.00992
G1 X106.021 Y78.778 E1.30841
G1 X106.407 Y77.892 E.03032
G1 X107.162 Y76.995 E.03674
G1 X107.902 Y76.505 E.02785
G1 X108.45 Y76.273 E.01864
G1 X109.87 Y76.11 E.0448
G1 X115.607 Y77.215 E.18321
G1 X116.203 Y77.557 E.02154
G1 X116.714 Y77.985 E.02089
G1 X117.348 Y78.834 E.03322
G1 X117.704 Y79.789 E.03196
G1 X117.779 Y80.943 E.03625
G1 X108.918 Y131.195 E1.59994
G1 X108.353 Y132.359 E.04054
G1 X107.938 Y132.841 E.01994
G1 X107.148 Y133.432 E.03094
G1 X106.158 Y133.807 E.0332
G1 X104.992 Y133.879 E.03662
G1 X99.433 Y132.828 E.1774
G1 X98.75 Y132.462 E.02429
G1 X98.279 Y132.086 E.0189
G1 X97.637 Y131.276 E.03241
G1 X97.452 Y130.832 E.01508
G1 X97.121 Y130.965 E.01118
G1 X91.742 Y131.92 E.17129
G1 X90.445 Y131.769 E.04093
G1 X89.791 Y131.493 E.02226
G1 X89.061 Y130.994 E.02773
G1 X88.38 Y130.183 E.0332
G1 X87.978 Y129.294 E.03059
G1 X79.074 Y78.736 E1.6096
G1 X79.184 Y77.886 E.02689
M204 S1000
G1 X79.558 Y77.935 F10800
M204 S800
G1 F1200
G1 X79.598 Y77.632 E.00956
G1 X79.812 Y77.123 E.01734
G1 X80.268 Y76.441 E.02571
G1 X81.055 Y75.785 E.0321
G1 X81.673 Y75.49 E.02149
G1 X86.968 Y74.527 E.16873
G1 X87.672 Y74.527 E.02209
G1 X88.627 Y74.786 E.03102
G1 X89.446 Y75.297 E.03027
G1 X90.103 Y76.06 E.03156
G1 X90.504 Y76.981 E.03148
G1 X98.45 Y122.043 E1.4347
G1 X98.766 Y122.043 E.00992
G1 X106.389 Y78.867 E1.37469
G1 X106.741 Y78.07 E.02731
G1 X107.43 Y77.261 E.03333
G1 X108.069 Y76.843 E.02391
G1 X108.524 Y76.644 E.0156
G1 X109.828 Y76.486 E.04118
G1 X115.448 Y77.558 E.17938
G1 X115.976 Y77.859 E.01907
G1 X116.428 Y78.231 E.01834
G1 X117.004 Y78.992 E.02994
G1 X117.341 Y79.894 E.03019
G1 X117.403 Y80.899 E.03156
G1 X108.551 Y131.103 E1.5984
G1 X108.027 Y132.169 E.03724
G1 X107.669 Y132.576 E.01699
G1 X106.946 Y133.113 E.02824
G1 X106.054 Y133.443 E.02982
G1 X105.04 Y133.504 E.03187
G1 X99.533 Y132.463 E.1757
G1 X98.948 Y132.141 E.02096
G1 X98.533 Y131.806 E.01671
G1 X97.953 Y131.067 E.02946
G1 X97.664 Y130.324 E.025
G1 X97.031 Y130.598 E.02163
G1 X91.704 Y131.544 E.16962
G1 X90.519 Y131.398 E.03745
G1 X89.987 Y131.17 E.01815
G1 X89.33 Y130.729 E.0248
G1 X88.711 Y130.001 E.02996
G1 X88.345 Y129.204 E.0275
G1 X79.451 Y78.756 E1.60614
G1 X79.551 Y77.994 E.02411
M204 S1000
G1 X79.924 Y78.043 F10800
M204 S800
G1 F1200
G1 X79.968 Y77.707 E.0106
G1 X80.137 Y77.315 E.01338
G1 X80.533 Y76.711 E.02267
G1 X81.242 Y76.113 E.02907
G1 X81.767 Y75.857 E.01833
G1 X87.019 Y74.901 E.16738
G1 X87.602 Y74.898 E.01825
G1 X88.455 Y75.122 E.02768
G1 X89.18 Y75.566 E.02664
G1 X89.798 Y76.284 E.02971
G1 X90.136 Y77.067 E.02675
G1 X98.449 Y124.213 E1.50103
G1 X98.766 Y124.213 E.00992
G1 X106.756 Y78.956 E1.44095
G1 X107.073 Y78.251 E.02424
G1 X107.697 Y77.529 E.02992
G1 X108.238 Y77.18 E.02019
G1 X108.603 Y77.014 E.01256
G1 X109.788 Y76.862 E.03748
G1 X115.289 Y77.901 E.1755
G1 X115.776 Y78.179 E.0176
G1 X116.141 Y78.477 E.01477
G1 X116.686 Y79.197 E.02831
G1 X116.977 Y79.997 E.02668
G1 X117.028 Y80.855 E.02696
G1 X108.184 Y131.01 E1.59684
G1 X107.702 Y131.976 E.03386
G1 X107.403 Y132.309 E.01403
G1 X106.745 Y132.793 E.02559
G1 X105.952 Y133.079 E.02643
G1 X105.087 Y133.129 E.02718
G1 X99.636 Y132.099 E.17395
G1 X99.148 Y131.821 E.01759
G1 X98.816 Y131.556 E.01333
G1 X98.268 Y130.858 E.0278
G1 X97.846 Y129.726 E.03788
G1 X97.519 Y129.973 E.01287
G1 X96.941 Y130.231 E.01984
G1 X91.667 Y131.168 E.16794
G1 X90.595 Y131.028 E.03389
G1 X90.181 Y130.847 E.01418
G1 X89.6 Y130.463 E.02183
G1 X89.016 Y129.778 E.02824
G1 X88.699 Y129.072 E.02427
G1 X79.829 Y78.777 E1.6013
G1 X79.917 Y78.102 E.02132
M204 S1000
G1 X80.291 Y78.151 F10800
M204 S800
G1 F1200
G1 X80.338 Y77.785 E.01156
G1 X80.474 Y77.484 E.01037
M73 P0 R234
G1 X80.8 Y76.979 E.01884
G1 X81.433 Y76.439 E.0261
G1 X81.863 Y76.223 E.01508
G1 X87.07 Y75.275 E.16595
G1 X87.575 Y75.275 E.01586
G1 X88.329 Y75.478 E.02447
G1 X88.954 Y75.869 E.02312
G1 X89.492 Y76.505 E.0261
G1 X89.769 Y77.154 E.02212
G1 X98.449 Y126.384 E1.56739
G1 X98.766 Y126.384 E.00992
G1 X107.11 Y79.086 E1.50591
G1 X107.379 Y78.473 E.02098
G1 X107.925 Y77.831 E.02644
G1 X108.43 Y77.505 E.01884
G1 X108.732 Y77.369 E.01037
G1 X109.748 Y77.238 E.03214
G1 X115.129 Y78.244 E.17164
G1 X115.576 Y78.499 E.01614
G1 X115.857 Y78.726 E.01132
G1 X116.342 Y79.354 E.02487
G1 X116.613 Y80.099 E.02486
G1 X116.653 Y80.811 E.02235
G1 X107.818 Y130.916 E1.59526
G1 X107.379 Y131.78 E.03038
G1 X107.138 Y132.039 E.01108
G1 X106.591 Y132.447 E.02142
G1 X105.85 Y132.715 E.02467
G1 X105.134 Y132.754 E.02249
G1 X99.795 Y131.756 E.17031
G1 X99.347 Y131.5 E.01618
G1 X99.095 Y131.302 E.01003
G1 X98.61 Y130.697 E.02432
G1 X98.311 Y129.899 E.02671
G1 X98.247 Y128.906 E.03119
G1 X97.337 Y129.642 E.03668
G1 X96.851 Y129.864 E.01676
G1 X91.631 Y130.791 E.16622
G1 X90.675 Y130.659 E.03025
G1 X90.373 Y130.523 E.01039
G1 X89.868 Y130.197 E.01884
G1 X89.321 Y129.555 E.02644
G1 X89.053 Y128.942 E.02098
G1 X80.207 Y78.797 E1.59655
G1 X80.283 Y78.21 E.01854
M204 S1000
G1 X80.649 Y78.258 F10800
M204 S800
G1 F1200
G1 X80.694 Y77.913 E.01093
G1 X80.799 Y77.675 E.00814
G1 X81.101 Y77.208 E.01744
G1 X81.656 Y76.744 E.0227
G1 X82.004 Y76.573 E.01216
G1 X87.121 Y75.649 E.16304
G1 X87.506 Y75.646 E.01207
G1 X88.154 Y75.814 E.02099
G1 X88.728 Y76.172 E.0212
G1 X89.183 Y76.723 E.02239
G1 X89.401 Y77.24 E.0176
G1 X98.227 Y127.296 E1.5937
G1 X98.129 Y128.095 E.02523
G1 X98.01 Y128.38 E.0097
G1 X97.672 Y128.889 E.01915
G1 X97.119 Y129.334 E.02224
G1 X96.761 Y129.497 E.01236
G1 X91.65 Y130.413 E.16279
G1 X90.802 Y130.303 E.02682
G1 X90.565 Y130.197 E.00814
G1 X90.097 Y129.896 E.01744
G1 X89.63 Y129.336 E.02286
G1 X89.409 Y128.816 E.01773
G1 X80.583 Y78.76 E1.59368
G1 X80.641 Y78.318 E.01398
M204 S1000
G1 X81.007 Y78.366 F10800
M204 S800
G1 F1200
G1 X81.05 Y78.038 E.01039
G1 X81.125 Y77.866 E.00588
G1 X81.401 Y77.438 E.01596
G1 X81.875 Y77.051 E.01918
G1 X82.142 Y76.924 E.00927
G1 X87.171 Y76.023 E.16018
G1 X87.48 Y76.023 E.0097
G1 X88.027 Y76.17 E.01775
G1 X88.497 Y76.472 E.01751
G1 X88.871 Y76.937 E.01873
G1 X89.033 Y77.325 E.01319
G1 X97.851 Y127.332 E1.59213
G1 X97.76 Y128.017 E.02167
G1 X97.685 Y128.189 E.00588
G1 X97.409 Y128.617 E.01596
G1 X96.935 Y129.004 E.01918
G1 X96.668 Y129.131 E.00927
G1 X91.613 Y130.037 E.16103
G1 X90.927 Y129.946 E.02168
G1 X90.755 Y129.872 E.00588
G1 X90.328 Y129.596 E.01596
G1 X89.94 Y129.121 E.01923
G1 X89.777 Y128.73 E.01327
G1 X80.959 Y78.723 E1.59213
G1 X80.999 Y78.426 E.0094
M204 S1000
G1 X81.365 Y78.476 F10800
M204 S800
G1 F1200
G1 X81.408 Y78.16 E.01
G1 X81.452 Y78.055 E.00355
G1 X81.7 Y77.67 E.01438
G1 X82.088 Y77.363 E.01552
G1 X82.275 Y77.278 E.00644
G1 X87.218 Y76.397 E.15743
G1 X87.449 Y76.4 E.00724
G1 X87.894 Y76.524 E.01449
G1 X88.261 Y76.767 E.01379
G1 X88.557 Y77.147 E.0151
G1 X88.665 Y77.41 E.00892
G1 X97.474 Y127.369 E1.59058
G1 X97.402 Y127.895 E.01667
G1 X97.358 Y128 E.00355
G1 X97.11 Y128.385 E.01438
G1 X96.722 Y128.692 E.01552
G1 X96.535 Y128.778 E.00644
G1 X91.576 Y129.661 E.15792
G1 X91.049 Y129.589 E.01667
G1 X90.945 Y129.545 E.00355
G1 X90.559 Y129.297 E.01438
G1 X90.253 Y128.909 E.01548
G1 X90.145 Y128.645 E.00895
G1 X81.336 Y78.687 E1.59058
G1 X81.357 Y78.535 E.00479
M204 S1000
G1 X81.722 Y78.588 F10800
M204 S800
G1 F1200
G1 X81.78 Y78.242 E.01102
G1 X81.998 Y77.904 E.01261
G1 X82.294 Y77.679 E.01165
G1 X82.402 Y77.633 E.00367
G1 X87.269 Y76.771 E.15498
G1 X87.381 Y76.771 E.00352
G1 X87.714 Y76.857 E.01076
G1 X88.024 Y77.062 E.01167
G1 X88.24 Y77.351 E.01128
G1 X88.297 Y77.494 E.00484
G1 X97.097 Y127.404 E1.58903
G1 X97.043 Y127.78 E.01193
G1 X96.812 Y128.152 E.01371
G1 X96.516 Y128.376 E.01165
G1 X96.408 Y128.422 E.00367
G1 X91.541 Y129.284 E.15498
G1 X91.164 Y129.229 E.01193
G1 X90.793 Y128.999 E.01371
G1 X90.57 Y128.704 E.01158
G1 X90.513 Y128.561 E.00482
G1 X81.713 Y78.648 E1.58915
M204 S1000
G1 X82.09 Y78.621 F10800
M204 S800
G1 F1200
G1 X82.128 Y78.398 E.00709
G1 X82.294 Y78.141 E.00957
G1 X82.518 Y77.992 E.00845
G1 X87.314 Y77.146 E.1527
G1 X87.579 Y77.211 E.00856
G1 X87.777 Y77.349 E.00758
G1 X87.929 Y77.577 E.00856
G1 X96.72 Y127.435 E1.58738
G1 X96.682 Y127.658 E.00709
G1 X96.516 Y127.914 E.00957
G1 X96.292 Y128.063 E.00845
G1 X91.51 Y128.907 E.15225
G1 X91.287 Y128.868 E.00709
G1 X91.03 Y128.703 E.00957
G1 X90.881 Y128.479 E.00845
G1 X82.1 Y78.68 E1.5855
M204 S1000
G1 X82.472 Y78.614 F10800
M204 S800
G1 F1200
G1 X82.485 Y78.523 E.00288
G1 X82.575 Y78.394 E.00495
G1 X82.639 Y78.354 E.00235
G1 X87.324 Y77.527 E.14918
G1 X87.397 Y77.544 E.00235
G1 X87.527 Y77.634 E.00495
G1 X87.567 Y77.697 E.00235
G1 X96.341 Y127.459 E1.58431
G1 X96.325 Y127.532 E.00235
M73 P1 R234
G1 X96.235 Y127.661 E.00495
G1 X96.171 Y127.702 E.00235
G1 X91.486 Y128.528 E.14918
G1 X91.413 Y128.512 E.00235
G1 X91.283 Y128.421 E.00495
G1 X91.243 Y128.358 E.00235
G1 X82.482 Y78.673 E1.58186
M204 S1000
;WIPE_START
G1 F8640
G1 X82.485 Y78.523 E-.03467
G1 X82.575 Y78.394 E-.03645
G1 X82.639 Y78.354 E-.01732
G1 X85.503 Y77.849 E-.67156
;WIPE_END
G1 E-.04 F2100
G1 Z.6 F720
G1 X106.805 Y82.962 F10800
G1 Z.2 F720
G1 E.8 F2100
M204 S800
G1 F1200
G1 X107.466 Y79.212 E.11939
G1 X107.687 Y78.691 E.01773
G1 X108.154 Y78.132 E.02286
G1 X108.622 Y77.83 E.01744
G1 X108.859 Y77.725 E.00814
G1 X109.709 Y77.614 E.02687
G1 X114.97 Y78.588 E.16775
G1 X115.377 Y78.82 E.0147
G1 X115.576 Y78.978 E.00797
G1 X115.999 Y79.512 E.02134
G1 X116.249 Y80.201 E.02298
